X: 67
T:The The Fluenssamle Sireby
% Nottingham Music Database
S:Mick Peat
M:4/4
L:1/4
K:D
P:A
:|:A|"D"df dg|"A""f#"fd dB|"Em"d2 fe|"D"d2 -d2|\
"A7"c/2B/2=c fe|"F#7"Ag2e|"D"f2 f3/2f/2|
"Em"ee "E7"ge|"D"a2 fA|"D"d2 d2|"C"eg gc|A3g|"G"d4|"Em"g2 -e/2d/2c|
"G"BG "D"FE|"D"F2 FG|"D"F3/2G/2 Ad|"Bm"de dc|"G"B/2dB/2 Bc|"C"dc cB-|"C"eG2G|B2c|B4|"Am"c3/2d/2 ec|\
"G"G4-|
"G"B3/2c/2 -d2|"C"=ee c3/2a/2|"G"B/2^A/2B/2g/2 gf/2d/2|\
"D7"d2 c2| "G"G2-|D/2D/2E/2d/2 =B3/2d/2|
"G"dd d||
K:G
"G7"b2 "A"a2|"G"g4|"G"a/2g/2f/2e/2 de|"D7/b"d2 "G"AG|"C"E/2D/2E "G"Dd|